X:914
T:Charlie Lennon's
R:Mazurka
P:Mazurka
O:Ireland
B:Irish Traditional Music Session Tunes 2 p22
S:Irish Traditional Music Session Tunes 2 p22
Z:Transcription, chords:Mike Long
M:3/4
L:1/8
K:G
DG|\
"G"B3A GB|d4 AB|"C"c3e "D"dc|"G"(3(Bcd) g2 DG|\
"G"B3A GB|d4 AB|"C"c3A "D"FA|"G"G4:|
|:gf|\
"C"e2 ce ce|"G"d2 d2 AB|"C"c3A "D"FA|"G"B4 gf|\
"C"e2 ce ce|"G"d2 d2 AB|"C"c3A "D"FA|"G"G4:|
